src/img/clients/cardTagLeft.svg

<svg width="34" height="33" viewBox="0 0 34 33" fill="none" xmlns="http://www.w3.org/2000/svg">
<path fill-rule="evenodd" clip-rule="evenodd" d="M3.33521 1.25492C3.33521 1.04402 3.51356 0.873047 3.73358 0.873047H32.4166C32.6366 0.873047 32.815 1.04402 32.815 1.25492V28.8769C32.815 29.0878 32.6366 29.2588 32.4166 29.2588C32.1966 29.2588 32.0182 29.0878 32.0182 28.8769V1.63679H3.73358C3.51356 1.63679 3.33521 1.46582 3.33521 1.25492Z" fill="white" stroke="white" stroke-width="0.5" stroke-linecap="round" stroke-linejoin="round"/>
<path d="M3.75334 29.4351L3.87834 29.4351L3.87834 29.3101L3.87834 5.55099L5.50552 7.17706C5.70868 7.38008 6.03802 7.38008 6.24118 7.17706C6.44438 6.97399 6.44438 6.64473 6.24118 6.44166L3.72594 3.92814C3.52278 3.72512 3.19343 3.72512 2.99028 3.92814L0.475034 6.44166C0.27183 6.64473 0.27183 6.97399 0.475033 7.17706C0.678191 7.38008 1.00754 7.38008 1.21069 7.17706L2.83787 5.55099L2.83788 29.3101L2.83788 29.4351L2.96288 29.4351L3.75334 29.4351Z" fill="white" stroke="white" stroke-width="0.25"/>
<path d="M2.83691 29.7041V29.8291H2.96191L26.8617 29.8291L25.2265 31.4548C25.0221 31.658 25.0221 31.9876 25.2265 32.1907C25.4304 32.3935 25.7607 32.3935 25.9646 32.1907L28.4929 29.677C28.6973 29.4739 28.6973 29.1443 28.4929 28.9411L25.9646 26.4274C25.7607 26.2247 25.4304 26.2247 25.2265 26.4274C25.0221 26.6306 25.0221 26.9602 25.2265 27.1633L26.8617 28.7891L2.96191 28.7891H2.83691V28.9141V29.7041Z" fill="white" stroke="white" stroke-width="0.25"/>
<path fill-rule="evenodd" clip-rule="evenodd" d="M14.255 0.988725C14.4094 1.14296 14.4094 1.39303 14.255 1.54727L9.51223 6.28667C9.35788 6.4409 9.10763 6.4409 8.95329 6.28667C8.79894 6.13243 8.79894 5.88236 8.95329 5.72812L13.6961 0.988725C13.8504 0.834488 14.1007 0.834488 14.255 0.988725Z" fill="white" stroke="white" stroke-width="0.5" stroke-linecap="round" stroke-linejoin="round"/>
<path fill-rule="evenodd" clip-rule="evenodd" d="M32.5676 19.8149C32.7219 19.9692 32.7219 20.2192 32.5676 20.3735L28.22 24.7183C28.0656 24.8725 27.8154 24.8725 27.661 24.7183C27.5067 24.564 27.5067 24.314 27.661 24.1597L32.0086 19.8149C32.163 19.6607 32.4132 19.6607 32.5676 19.8149Z" fill="white" stroke="white" stroke-width="0.5" stroke-linecap="round" stroke-linejoin="round"/>
<path fill-rule="evenodd" clip-rule="evenodd" d="M20.1817 0.986954C20.3371 1.14021 20.3387 1.39028 20.1853 1.5455L9.90927 11.946C9.7559 12.1012 9.50566 12.1028 9.35033 11.9496C9.19501 11.7963 9.19341 11.5462 9.34677 11.391L19.6228 0.990511C19.7762 0.835292 20.0264 0.833699 20.1817 0.986954Z" fill="white" stroke="white" stroke-width="0.5" stroke-linecap="round" stroke-linejoin="round"/>
<path fill-rule="evenodd" clip-rule="evenodd" d="M32.6992 13.2319C32.8536 13.3861 32.8536 13.6362 32.6992 13.7904L22.6867 23.7955C22.5323 23.9497 22.2821 23.9497 22.1277 23.7955C21.9734 23.6412 21.9734 23.3912 22.1277 23.2369L32.1403 13.2319C32.2946 13.0777 32.5449 13.0777 32.6992 13.2319Z" fill="white" stroke="white" stroke-width="0.5" stroke-linecap="round" stroke-linejoin="round"/>
<path fill-rule="evenodd" clip-rule="evenodd" d="M26.5095 1.12185C26.6626 1.27733 26.6605 1.5274 26.505 1.68039L10.0369 17.8739C9.88136 18.0269 9.63112 18.0248 9.47802 17.8694C9.32492 17.7139 9.32694 17.4638 9.48253 17.3108L25.9505 1.11735C26.1061 0.964351 26.3564 0.966368 26.5095 1.12185Z" fill="white" stroke="white" stroke-width="0.5" stroke-linecap="round" stroke-linejoin="round"/>
<path fill-rule="evenodd" clip-rule="evenodd" d="M32.6993 7.04439C32.8536 7.19863 32.8536 7.4487 32.6993 7.60294L16.0995 24.191C15.9452 24.3452 15.6949 24.3452 15.5406 24.191C15.3862 24.0367 15.3862 23.7867 15.5406 23.6324L32.1403 7.04439C32.2947 6.89015 32.5449 6.89015 32.6993 7.04439Z" fill="white" stroke="white" stroke-width="0.5" stroke-linecap="round" stroke-linejoin="round"/>
<path fill-rule="evenodd" clip-rule="evenodd" d="M32.4358 1.11959C32.5901 1.27383 32.5901 1.52391 32.4358 1.67815L9.77578 24.3228C9.62143 24.477 9.37118 24.477 9.21684 24.3228C9.06249 24.1686 9.06249 23.9185 9.21684 23.7642L31.8768 1.11959C32.0312 0.965345 32.2814 0.965345 32.4358 1.11959Z" fill="white" stroke="white" stroke-width="0.5" stroke-linecap="round" stroke-linejoin="round"/>
</svg>

<svg width="34" height="33" fill="none" xmlns="http://www.w3.org/2000/svg"><path fill-rule="evenodd" clip-rule="evenodd" d="M3.335 1.255a.39.39 0 0 1 .399-.382h28.683a.39.39 0 0 1 .398.382v27.622a.39.39 0 0 1-.398.382.39.39 0 0 1-.399-.382V1.637H3.734a.39.39 0 0 1-.399-.382z" fill="#fff" stroke="#fff" stroke-width=".5" stroke-linecap="round" stroke-linejoin="round"/><path d="M3.753 29.435h.125V5.551l1.628 1.626a.52.52 0 0 0 .735-.735L3.726 3.928a.52.52 0 0 0-.736 0L.475 6.442a.52.52 0 1 0 .736.735l1.627-1.626v23.884h.915z" fill="#fff" stroke="#fff" stroke-width=".25"/><path d="M2.837 29.704v.125h24.025l-1.635 1.626a.518.518 0 0 0 0 .736.524.524 0 0 0 .738 0l2.528-2.514a.518.518 0 0 0 0-.736l-2.528-2.514a.524.524 0 0 0-.738 0 .518.518 0 0 0 0 .736l1.635 1.626H2.837v.915z" fill="#fff" stroke="#fff" stroke-width=".25"/><path fill-rule="evenodd" clip-rule="evenodd" d="M14.255.989a.395.395 0 0 1 0 .558l-4.743 4.74a.395.395 0 0 1-.559-.559l4.743-4.74a.395.395 0 0 1 .559 0zm18.313 18.826a.395.395 0 0 1 0 .558l-4.348 4.345a.396.396 0 0 1-.559-.558l4.348-4.345a.396.396 0 0 1 .559 0zM20.182.987a.395.395 0 0 1 .003.559L9.91 11.946a.396.396 0 0 1-.562-.555L19.623.991a.395.395 0 0 1 .559-.004zM32.7 13.232a.395.395 0 0 1 0 .558L22.686 23.796a.396.396 0 0 1-.56-.56L32.14 13.233a.395.395 0 0 1 .56 0zm-6.19-12.11a.395.395 0 0 1-.005.558L10.037 17.874a.395.395 0 0 1-.554-.563L25.95 1.117a.396.396 0 0 1 .558.005zm6.19 5.922a.395.395 0 0 1 0 .559L16.1 24.19a.395.395 0 0 1-.56-.559l16.6-16.588a.395.395 0 0 1 .56 0zm-.264-5.924a.395.395 0 0 1 0 .558L9.776 24.323a.395.395 0 0 1-.56-.559L31.877 1.12a.395.395 0 0 1 .56 0z" fill="#fff" stroke="#fff" stroke-width=".5" stroke-linecap="round" stroke-linejoin="round"/></svg>
